docs/icons/exp.svg

<svg xmlns="http://www.w3.org/2000/svg" width="27.8" height="24" viewBox="0 0 27.8 24" fill="none">
<g clip-path="url(#clip0)">
<path d="M16.7711 15.3596C16.7711 16.376 15.8912 17.0112 15.1118 17.0112C14.3324 17.0112 13.3973 16.6954 13.3973 15.3596V14.71H12.3706V15.3596C12.3706 16.8389 13.6008 18.0421 15.1118 18.0421C16.6228 18.0421 17.8529 16.8389 17.8529 15.3596V14.71H16.7711V15.3596Z" fill="#130B43"/>
<path d="M8.14791 12.2226C8.14791 11.252 8.98972 10.4627 10.024 10.4627C11.0576 10.4627 11.8994 11.2527 11.8994 12.2226H13.0811C13.0811 10.64 11.7104 9.35303 10.024 9.35303C8.33759 9.35303 6.96619 10.64 6.96619 12.2226H8.14791Z" fill="#130B43"/>
<path d="M17.8859 12.2226C17.8859 11.252 18.7278 10.4627 19.7613 10.4627C20.7956 10.4627 21.6374 11.2527 21.6374 12.2226H22.8191C22.8191 10.64 21.4477 9.35303 19.7613 9.35303C18.0749 9.35303 16.7042 10.64 16.7042 12.2226H17.8859Z" fill="#130B43"/>
<path fill-rule="evenodd" clip-rule="evenodd" d="M24.7258 8.45805V4.64371C24.7258 3.35828 24.5696 2.46641 24.257 1.96808C23.9445 1.46974 23.2938 1.08551 22.3049 0.815389C22.0063 0.731557 21.8571 0.596496 21.8571 0.410202C21.8571 0.158705 22.1929 0.032959 22.8646 0.032959H23.8862C24.9964 0.032959 25.8384 0.377597 26.4121 1.06688C26.9859 1.75617 27.2727 2.76214 27.2727 4.08483V8.10875C27.2727 9.04022 27.373 9.75744 27.5736 10.2604C27.7742 10.7634 28.145 11.2338 28.6861 11.6716C28.8447 11.802 28.924 11.9091 28.924 11.993C28.924 12.0768 28.8447 12.1839 28.6861 12.3143C28.1357 12.7614 27.7625 13.2341 27.5666 13.7325C27.3707 14.2308 27.2727 14.9457 27.2727 15.8772V19.8871C27.2727 21.2191 26.9835 22.2297 26.4051 22.919C25.8267 23.6083 24.9871 23.953 23.8862 23.953H22.8646C22.4261 23.953 22.1486 23.932 22.032 23.8901C21.9154 23.8482 21.8571 23.7434 21.8571 23.5757C21.8571 23.3429 22.011 23.1892 22.3189 23.1146L22.8786 22.9889C24.1101 22.7095 24.7258 21.4939 24.7258 19.3422V15.5279C24.7258 14.0841 25.0757 13.0641 25.7754 12.468L26.0413 12.2445C26.1719 12.1327 26.2372 12.0488 26.2372 11.993C26.2372 11.9278 26.1719 11.8439 26.0413 11.7415L25.7754 11.5179C25.0757 10.9218 24.7258 9.90183 24.7258 8.45805Z" fill="#130B43"/>
<path fill-rule="evenodd" clip-rule="evenodd" d="M5.32324 8.42509V4.61075C5.32324 3.32532 5.47951 2.43345 5.79204 1.93512C6.10458 1.43678 6.75529 1.05256 7.74421 0.78243C8.04275 0.698598 8.19202 0.563537 8.19202 0.377243C8.19202 0.125746 7.85616 0 7.18445 0H6.16288C5.05269 0 4.21072 0.344638 3.63696 1.03393C3.06321 1.72321 2.77633 2.72918 2.77633 4.05187V8.0758C2.77633 9.00726 2.67604 9.72448 2.47546 10.2275C2.27488 10.7305 1.90404 11.2009 1.36294 11.6386C1.20434 11.7691 1.12504 11.8762 1.12504 11.96C1.12504 12.0438 1.20434 12.151 1.36294 12.2814C1.91337 12.7285 2.28654 13.2012 2.48246 13.6995C2.67838 14.1978 2.77633 14.9127 2.77633 15.8442V19.8542C2.77633 21.1862 3.06554 22.1968 3.64396 22.8861C4.22238 23.5754 5.06202 23.92 6.16288 23.92H7.18445C7.62293 23.92 7.90047 23.899 8.01709 23.8571C8.13371 23.8152 8.19202 23.7104 8.19202 23.5428C8.19202 23.3099 8.03808 23.1562 7.73021 23.0817L7.17045 22.9559C5.93897 22.6765 5.32324 21.4609 5.32324 19.3093V15.4949C5.32324 14.0511 4.9734 13.0312 4.27369 12.435L4.00781 12.2115C3.87719 12.0997 3.81189 12.0159 3.81189 11.96C3.81189 11.8948 3.87719 11.811 4.00781 11.7085L4.27369 11.485C4.9734 10.8888 5.32324 9.86887 5.32324 8.42509Z" fill="#130B43"/>
</g>
</svg>

<svg xmlns="http://www.w3.org/2000/svg" width="27.8" height="24" fill="#130b43" clip-path="url(#clip0)" xmlns:v="https://vecta.io/nano"><path d="M16.771 15.36c0 1.016-.88 1.652-1.659 1.652s-1.715-.316-1.715-1.652v-.65H12.37v.65c0 1.479 1.23 2.683 2.741 2.683s2.741-1.203 2.741-2.683v-.65H16.77v.65zm-8.623-3.137c0-.971.842-1.76 1.876-1.76s1.875.79 1.875 1.76h1.182c0-1.583-1.371-2.87-3.057-2.87s-3.058 1.287-3.058 2.87h1.182zm9.738 0c0-.971.842-1.76 1.875-1.76s1.876.79 1.876 1.76h1.182c0-1.583-1.371-2.87-3.058-2.87s-3.057 1.287-3.057 2.87h1.182z"/><path d="M24.726 8.458V4.644c0-1.285-.156-2.177-.469-2.676s-.963-.883-1.952-1.153c-.299-.084-.448-.219-.448-.405 0-.251.336-.377 1.008-.377h1.022c1.11 0 1.952.345 2.526 1.034s.861 1.695.861 3.018v4.024c0 .931.1 1.649.301 2.152s.571.973 1.113 1.411c.159.13.238.238.238.321s-.079.191-.238.321c-.55.447-.924.92-1.119 1.418s-.294 1.213-.294 2.145v4.01c0 1.332-.289 2.343-.868 3.032s-1.418 1.034-2.519 1.034h-1.022c-.438 0-.716-.021-.833-.063s-.175-.147-.175-.314c0-.233.154-.387.462-.461l.56-.126c1.232-.279 1.847-1.495 1.847-3.647v-3.814c0-1.444.35-2.464 1.05-3.06l.266-.223c.131-.112.196-.196.196-.252 0-.065-.065-.149-.196-.252l-.266-.224c-.7-.596-1.05-1.616-1.05-3.06zM5.323 8.425V4.611c0-1.285.156-2.177.469-2.676s.963-.883 1.952-1.153c.299-.084.448-.219.448-.405C8.192.126 7.856 0 7.184 0H6.163c-1.11 0-1.952.345-2.526 1.034s-.861 1.695-.861 3.018v4.024c0 .931-.1 1.649-.301 2.152s-.571.973-1.113 1.411c-.159.13-.238.238-.238.321s.079.191.238.321c.55.447.924.92 1.12 1.418s.294 1.213.294 2.145v4.01c0 1.332.289 2.343.868 3.032s1.418 1.034 2.519 1.034h1.022c.438 0 .716-.021.833-.063s.175-.147.175-.314c0-.233-.154-.387-.462-.461l-.56-.126c-1.231-.279-1.847-1.495-1.847-3.647v-3.814c0-1.444-.35-2.464-1.05-3.06l-.266-.224c-.131-.112-.196-.196-.196-.251 0-.065.065-.149.196-.252l.266-.224c.7-.596 1.05-1.616 1.05-3.06z" fill-rule="evenodd"/></svg>
